epam-assets/icon-sources/18/internal-logo/connect.svg

<svg width="18" height="18" viewBox="0 0 18 18" fill="none" xmlns="http://www.w3.org/2000/svg">
<g id="18/internal-logo/connect">
<path id="icon" fill-rule="evenodd" clip-rule="evenodd" d="M15.8102 5.01398C14.499 2.91608 12.1388 1.5 9.51646 1.5H9.35912L9.15106 1.5056C7.56153 1.5705 6.10208 2.13938 4.92295 3.05551L4.93391 3.05598L5.33561 3.01067C8.60471 2.66452 10.1671 3.52687 11.131 4.99379L11.2484 5.1803C11.2866 5.24344 11.3238 5.30764 11.3601 5.37278L11.4665 5.57108L11.5682 5.77484L11.6654 5.9839L11.8044 6.30671L11.893 6.52773L11.979 6.75309L12.0541 6.96078C12.1526 7.0244 12.2768 7.04837 12.4011 7.00694L15.6528 5.53846L15.702 5.51009C15.8703 5.39858 15.9064 5.20631 15.8102 5.01398ZM4.92269 3.05562C3.5365 4.13264 2.53773 5.68956 2.17039 7.47173C2.84664 5.79601 4.28684 4.51074 6.05936 4.04741C4.28658 4.51085 2.84623 5.79648 2.17014 7.47261C2.07525 7.9332 2.02255 8.40879 2.01623 8.89514C1.99934 10.2464 2.33603 11.5161 2.94057 12.6166L2.94019 12.6164C4.21254 14.9331 6.67142 16.5 9.51601 16.5C9.59799 16.5 9.67965 16.4987 9.7611 16.4961C9.74033 16.4967 9.71956 16.4973 9.69874 16.4978L9.51302 16.5C9.51317 16.4999 9.51331 16.4999 9.51346 16.4998L9.69846 16.4976C12.2475 16.436 14.5289 15.0874 15.8096 13.0383C15.9145 12.8285 15.862 12.6187 15.6522 12.5138L12.9071 11.2939L12.9071 11.2939L12.3482 11.0456L12.2958 11.0301C12.1914 11.0038 12.0895 11.006 12.0057 11.0677L11.984 11.0878C10.2848 13.4554 7.7578 14.4677 5.00314 13.6022C7.75769 14.4675 10.2845 13.4552 11.9837 11.0877L12.0044 11.0686C11.977 11.089 11.9515 11.1159 11.9285 11.1503C11.2992 11.8322 10.4601 12.2517 9.46356 12.2517C7.6279 12.2517 6.15937 10.7832 6.15937 8.99994C6.15937 7.21673 7.6279 5.7482 9.46356 5.7482C9.77253 5.7482 10.0765 5.79362 10.3662 5.87675C10.2941 5.84399 10.221 5.8129 10.1471 5.78353C10.2208 5.8128 10.2937 5.84378 10.3656 5.87642C11.0101 6.06093 11.5831 6.43157 11.9813 6.90213C12.0121 6.93292 12.0474 6.9592 12.0859 6.97965C12.075 6.97383 12.0644 6.96759 12.054 6.96088L11.9789 6.75318L11.8929 6.52782L11.8042 6.3068L11.6653 5.98399L11.568 5.77493L11.4664 5.57117L11.3599 5.37287C11.3406 5.3382 11.3211 5.30385 11.3012 5.26976L11.301 5.26956C11.2836 5.23962 11.266 5.2099 11.2482 5.1804L11.1308 4.9939C10.1669 3.52698 8.60446 2.66463 5.33535 3.01077L4.93366 3.05608L4.92269 3.05562ZM16.0905 9.02063C16.0905 8.42997 15.6117 7.95117 15.0211 7.95117C14.6083 7.95117 14.2502 8.18503 14.0725 8.52799L14.0722 8.52857C14.0067 8.64385 13.8847 8.70731 13.752 8.70731H10.6126C10.4965 8.70731 10.3993 8.6289 10.3329 8.53208L10.3147 8.5026C10.1323 8.17376 9.78159 7.95117 9.3789 7.95117C8.78823 7.95117 8.30944 8.42997 8.30944 9.02063C8.30944 9.61124 8.78823 10.09 9.3789 10.09C9.71226 10.09 10.01 9.93752 10.206 9.69841L10.2185 9.68304C10.2287 9.67014 10.2386 9.65697 10.2482 9.64392C10.256 9.63301 10.2637 9.62189 10.2711 9.6104C10.2788 9.59881 10.2863 9.58701 10.2935 9.57495C10.2979 9.56766 10.3022 9.56031 10.3064 9.55292C10.3729 9.43491 10.4919 9.35467 10.6274 9.35467H13.7371C13.8727 9.35467 14.0056 9.41283 14.0722 9.53084C14.1106 9.59876 14.1578 9.66248 14.214 9.72222C14.41 9.94759 14.6989 10.09 15.0211 10.09C15.6117 10.09 16.0905 9.61124 16.0905 9.02063Z" fill="#6C6F80"/>
</g>
</svg>

<svg xmlns="http://www.w3.org/2000/svg" width="18" height="18" fill="none" viewBox="0 0 18 18">
  <path fill="#6C6F80" fill-rule="evenodd" d="M15.81 5.014C14.5 2.916 12.14 1.5 9.516 1.5H9.36l-.208.006a7.362 7.362 0 0 0-4.228 1.55h.01l.403-.045c3.269-.346 4.831.516 5.795 1.983l.117.186c.039.063.076.128.112.193l.107.198.101.204.097.209.14.323.088.22.086.226.075.208a.4.4 0 0 0 .347.046l3.252-1.469.049-.028c.168-.111.204-.304.108-.496ZM4.923 3.056A7.524 7.524 0 0 0 2.17 7.472a7.53 7.53 0 0 0-.154 1.423 7.508 7.508 0 0 0 .925 3.722 7.48 7.48 0 0 0 6.758 3.88l-.186.003.185-.002a7.422 7.422 0 0 0 6.112-3.46c.104-.21.052-.42-.158-.524l-2.745-1.22-.559-.248-.052-.016c-.105-.026-.207-.024-.29.038l-.022.02c-1.7 2.367-4.226 3.38-6.98 2.514 2.754.865 5.28-.147 6.98-2.514l.02-.02a.327.327 0 0 0-.075.082c-.63.682-1.469 1.102-2.465 1.102-1.836 0-3.305-1.469-3.305-3.252 0-1.783 1.469-3.252 3.305-3.252.309 0 .612.046.902.129a3.337 3.337 0 0 1 1.615 1.025.44.44 0 0 0 .073.059l-.075-.208-.086-.225-.089-.221-.139-.323-.097-.21-.102-.203-.106-.198a6.297 6.297 0 0 0-.112-.192l-.117-.187c-.964-1.467-2.527-2.33-5.796-1.983l-.401.045h-.011ZM16.09 9.02a1.07 1.07 0 0 0-2.018-.493.361.361 0 0 1-.32.18h-3.14c-.116 0-.213-.08-.28-.176l-.017-.03a1.07 1.07 0 1 0-.109 1.196l.013-.015a1.414 1.414 0 0 0 .075-.108.974.974 0 0 0 .012-.022.373.373 0 0 1 .321-.198h3.11c.136 0 .269.058.335.176a.99.99 0 0 0 .142.191 1.07 1.07 0 0 0 1.876-.702Z" clip-rule="evenodd"/>
</svg>
